lib/brands/icons/css-3.svg

<svg xmlns="http://www.w3.org/2000/svg" fill="none" aria-hidden="true" viewBox="0 0 48 48"><g id="css-3-Icon"><g id="Group"><path id="Vector" fill="#264DE4" d="M23.9843 42L13.5686 39.1085L11.2476 13.0748H36.7523L34.4287 39.1044L23.9843 42Z"/><path id="Vector_2" fill="#2965F1" d="M32.4396 37.447L34.4252 15.2035H24V39.7868L32.4396 37.447Z"/><path id="Vector_3" fill="#EBEBEB" d="M16.5684 24.859L16.8545 28.0519H23.9997V24.859H16.5684Z"/><path id="Vector_4" fill="#EBEBEB" d="M15.9937 18.3965L16.2839 21.5894H24V18.3965H15.9937Z"/><path id="Vector_5" fill="#EBEBEB" d="M24.0001 33.1514L23.9861 33.1551L20.4301 32.1949L20.2028 29.6484H16.9976L17.4449 34.6618L23.9854 36.4774L24.0001 36.4734V33.1514Z"/><path id="Vector_6" fill="black" d="M17.25 6H21.1172V7.61719H18.8672V9.23438H21.1172V10.8516H17.25V6Z"/><path id="Vector_7" fill="black" d="M21.8906 6H25.7578V7.40625H23.5078V7.6875H25.7578V10.9219H21.8906V9.44531H24.1406V9.16406H21.8906V6Z"/><path id="Vector_8" fill="black" d="M26.5312 6H30.3984V7.40625H28.1484V7.6875H30.3984V10.9219H26.5312V9.44531H28.7812V9.16406H26.5312V6Z"/><path id="Vector_9" fill="white" d="M31.4107 24.859L31.9871 18.3965H23.9888V21.5894H28.4879L28.1974 24.859H23.9888V28.0519H27.9205L27.5499 32.1929L23.9888 33.1541V36.4759L30.5344 34.6618L30.5825 34.1223L31.3328 25.7164L31.4107 24.859Z"/></g></g></svg>

<svg xmlns="http://www.w3.org/2000/svg" fill="none" aria-hidden="true" viewBox="0 0 48 48"><path fill="#264DE4" d="M23.984 42 13.57 39.108l-2.321-26.033h25.504l-2.323 26.03L23.984 42Z"/><path fill="#2965F1" d="m32.44 37.447 1.985-22.244H24v24.584l8.44-2.34Z"/><path fill="#EBEBEB" d="m16.568 24.859.287 3.193H24v-3.193h-7.432Zm-.574-6.463.29 3.193H24v-3.192h-8.006ZM24 33.151l-.014.004-3.556-.96-.227-2.547h-3.205l.447 5.014 6.54 1.815.015-.004v-3.322Z"/><path fill="#000" d="M17.25 6h3.867v1.617h-2.25v1.617h2.25v1.618H17.25V6Zm4.64 0h3.868v1.406h-2.25v.282h2.25v3.234H21.89V9.445h2.25v-.28h-2.25V6Zm4.641 0h3.867v1.406h-2.25v.282h2.25v3.234h-3.867V9.445h2.25v-.28h-2.25V6Z"/><path fill="#fff" d="m31.41 24.859.577-6.463H23.99v3.193h4.499l-.29 3.27h-4.21v3.193h3.933l-.371 4.14-3.561.962v3.322l6.545-1.814.049-.54.75-8.406.078-.857Z"/></svg>
